src/icons/grid.icon.svg

<svg xmlns="http://www.w3.org/2000/svg" viewBox="0 0 24 24"><path d="M2 4h6v7H2V4zm7 0h6v7H9V4zm0 9h6v7H9v-7zm7-9h6v7h-6V4zm0 9h6v7h-6v-7zM2 13h6v7H2v-7z" fill="currentColor" fill-rule="evenodd"/></svg>

<svg width="24px" height="24px" viewBox="0 0 24 24" version="1.1" xmlns="http://www.w3.org/2000/svg" xmlns:xlink="http://www.w3.org/1999/xlink">
    <!-- Generator: Sketch 49.2 (51160) - http://www.bohemiancoding.com/sketch -->
    <title>IconGrid</title>
    <desc>Created with Sketch.</desc>
    <defs></defs>
    <g id="Page-1" stroke="none" stroke-width="1" fill="none" fill-rule="evenodd">
        <g id="IconGrid">
            <path d="M2,4 L8,4 L8,11 L2,11 L2,4 Z M9,4 L15,4 L15,11 L9,11 L9,4 Z M9,13 L15,13 L15,20 L9,20 L9,13 Z M16,4 L22,4 L22,11 L16,11 L16,4 Z M16,13 L22,13 L22,20 L16,20 L16,13 Z M2,13 L8,13 L8,20 L2,20 L2,13 Z" id="Combined-Shape" fill="currentColor"></path>
        </g>
    </g>
</svg>
